icons/svgs/link-solid.svg

<svg width="25" height="24" viewBox="0 0 25 24" fill="none" xmlns="http://www.w3.org/2000/svg">
<path d="M22.6172 12.4687L18.2422 16.8437C16.0547 19.0703 12.4609 19.0703 10.2734 16.8437C8.32031 14.8906 8.04688 11.8437 9.64844 9.57812L9.6875 9.53906C10.1172 8.95312 10.8984 8.83594 11.4453 9.22656C11.9922 9.61719 12.1484 10.3984 11.7188 10.9844L11.6797 11.0234C10.7812 12.2734 10.9375 13.9922 12.0312 15.0859C13.2422 16.3359 15.2344 16.3359 16.4844 15.0859L20.8594 10.7109C22.1094 9.46094 22.1094 7.46875 20.8594 6.25781C19.7656 5.16406 18.0469 5.00781 16.7969 5.90625L16.7578 5.94531C16.1719 6.375 15.3906 6.21875 15 5.67187C14.6094 5.125 14.7266 4.34375 15.2734 3.91406L15.3516 3.875C17.6172 2.27344 20.6641 2.54687 22.6172 4.5C24.8438 6.6875 24.8438 10.2812 22.6172 12.4687ZM2.34375 11.5703L6.71875 7.15625C8.94531 4.96875 12.5 4.96875 14.7266 7.15625C16.6797 9.10937 16.9141 12.1953 15.3125 14.4609L15.2734 14.5C14.8828 15.0859 14.0625 15.2031 13.5156 14.8125C12.9688 14.4219 12.8125 13.6406 13.2422 13.0547L13.2812 13.0156C14.1797 11.7266 14.0234 10.0469 12.9297 8.95312C11.7188 7.70312 9.72656 7.70312 8.47656 8.95312L4.10156 13.3281C2.89062 14.5391 2.89062 16.5312 4.10156 17.7812C5.19531 18.875 6.91406 19.0312 8.16406 18.1328L8.20312 18.0937C8.78906 17.6641 9.57031 17.8203 9.96094 18.3672C10.3516 18.9141 10.2344 19.6953 9.6875 20.125L9.60938 20.1641C7.38281 21.7656 4.29688 21.4922 2.34375 19.5391C0.117188 17.3516 0.117188 13.7578 2.34375 11.5703Z" fill="black"/>
</svg>

<svg xmlns="http://www.w3.org/2000/svg" width="24" height="24" fill="currentColor" class="icon-link-solid" viewBox="0 0 24 24">
  <mask id="a" width="25" height="20" x="0" y="2" maskUnits="userSpaceOnUse" style="mask-type:alpha">
    <path d="m22.617 12.469-4.375 4.375a5.59 5.59 0 0 1-7.969 0 5.64 5.64 0 0 1-.625-7.266l.04-.039c.43-.586 1.21-.703 1.757-.312s.703 1.171.274 1.757l-.04.04c-.898 1.25-.742 2.968.352 4.062 1.211 1.25 3.203 1.25 4.453 0l4.375-4.375c1.25-1.25 1.25-3.242 0-4.453-1.093-1.094-2.812-1.25-4.062-.352l-.04.04A1.247 1.247 0 0 1 15 5.671c-.39-.547-.273-1.328.273-1.758l.079-.039a5.64 5.64 0 0 1 7.265.625 5.59 5.59 0 0 1 0 7.969M2.344 11.57l4.375-4.414a5.706 5.706 0 0 1 8.008 0c1.953 1.953 2.187 5.04.585 7.305l-.039.039c-.39.586-1.21.703-1.757.313a1.247 1.247 0 0 1-.274-1.758l.04-.04a3.144 3.144 0 0 0-.352-4.062c-1.211-1.25-3.203-1.25-4.453 0l-4.375 4.375c-1.211 1.211-1.211 3.203 0 4.453 1.093 1.094 2.812 1.25 4.062.352l.04-.04a1.247 1.247 0 0 1 1.757.274c.39.547.273 1.328-.274 1.758l-.078.04c-2.226 1.6-5.312 1.327-7.265-.626a5.59 5.59 0 0 1 0-7.969"/>
  </mask>
  <g mask="url(#a)">
    <path d="M0 0h24v24H0z"/>
  </g>
</svg>
